pix_core/i/permissions.svg

<!DOCTYPE svg PUBLIC "-//W3C//DTD SVG 1.1//EN" "http://www.w3.org/Graphics/SVG/1.1/DTD/svg11.dtd" [
	<!ENTITY ns_flows "http://ns.adobe.com/Flows/1.0/">
]><svg xmlns="http://www.w3.org/2000/svg" width="16" height="16" viewBox="0 0 16 16" preserveAspectRatio="xMinYMid meet" overflow="visible"><path d="M11 0c-2.7 0-5 2.2-5 5 0 .4.1.9.2 1.3l-6.2 6.2v2.1l6.9-6.9c0 .1.1.2.1.3l-7 7v1h2v-1h2v-2h2v-2h2l1.3-1.3c.6.1 1.1.3 1.7.3 2.8 0 5-2.2 5-5s-2.2-5-5-5zm1.5 2c.8 0 1.5.7 1.5 1.5s-.7 1.5-1.5 1.5-1.5-.7-1.5-1.5.7-1.5 1.5-1.5z" fill="#1F4D87"/></svg>

<?xml version="1.0" encoding="utf-8"?>
<!-- Generator: Adobe Illustrator 15.1.0, SVG Export Plug-In  -->
<!DOCTYPE svg PUBLIC "-//W3C//DTD SVG 1.1//EN" "http://www.w3.org/Graphics/SVG/1.1/DTD/svg11.dtd" [
	<!ENTITY ns_flows "http://ns.adobe.com/Flows/1.0/">
]>
<svg version="1.1"
	 xmlns="http://www.w3.org/2000/svg" xmlns:xlink="http://www.w3.org/1999/xlink" xmlns:a="http://ns.adobe.com/AdobeSVGViewerExtensions/3.0/"
	 x="0px" y="0px" width="16px" height="16px" viewBox="0 0 16 16" style="overflow:visible;enable-background:new 0 0 16 16;"
	 xml:space="preserve" preserveAspectRatio="xMinYMid meet">
<defs>
</defs>
<path style="fill:#1F4D87;" d="M11,0C8.3,0,6,2.2,6,5c0,0.4,0.1,0.9,0.2,1.3L0,12.5v2.1l6.9-6.9C6.9,7.8,7,7.9,7,8l-7,7v1h2v-1h2v-2
	h2h0v-2h2l1.3-1.3C9.9,9.8,10.4,10,11,10c2.8,0,5-2.2,5-5S13.8,0,11,0z M12.5,2C13.3,2,14,2.7,14,3.5S13.3,5,12.5,5S11,4.3,11,3.5
	S11.7,2,12.5,2z"/>
</svg>
